X: 0562
T: GOV. CLEVELAND'S REEL.
C: John R. Bassett
B: Oliver Ditson "The Boston Collection of Instrumental Music" 1910 p.56 #2
F: http://conquest.imslp.info/files/imglnks/usimg/8/8f/IMSLP175643-PMLP309456-bostoncollection00bost_bw.pdf
M: C
L: 1/8
K: D
|: (dcd)A (BdAd) | (Fd)(Ed) (Dd)(Ed) | (dcdA) (BdAd) | faef d2d2 :|\
|: (fdf).d (Bd)(Ad) | (fae).f (dcBA) | (fef).d (Bd)(Ad) | (fae).f d2d2 :|
a2ba (gfed) | eAfA (gfed) | a2ba faef | dcBe d3A |\
dfBd AdFd | DdEd FdEd | fef.d BdAd | faef d2d2 |]

%%sep 1 1 500
%%sep 1 1 500
